assets/img/braze_icons/beaker-02.svg

<svg fill="none" height="24" viewBox="0 0 24 24" width="24" xmlns="http://www.w3.org/2000/svg"><path clip-rule="evenodd" d="m8.27687 1.00001h7.44633c.1191-.000049.2613-.000104.3866.01014.1453.01186.3533.0423.5712.15335.2822.14381.5117.37328.6555.65553.1111.21794.1415.42593.1534.57115.0102.12532.0102.26759.0101.3867v2.44626c.0001.11912.0001.26138-.0101.3867-.0119.14522-.0423.35321-.1534.57116-.1438.28224-.3733.51171-.6555.65552-.2179.11105-.4259.14149-.5712.15336-.0355.00291-.0725.00498-.1099.00647v3.50485c0 .605.008.7241.0343.8219.0304.113.0805.2199.1479.3157.0583.0828.1446.1651.6094.5525l3.7696 3.1412c.3518.2926.6618.5504.8921.8777.2022.2873.3524.6079.4437.9471.1039.3865.1035.7897.103 1.2473 0 .3931.0002.7862.0002 1.1794.0003.3806.0006.7085-.0577 1.0014-.2367 1.19-1.167 2.1203-2.357 2.357-.2929.0583-.6207.058-1.0014.0577h-13.1678c-.3807.0003-.70853.0006-1.00138-.0577-.4456-.0886-.85478-.2745-1.20476-.5348-.35323-.2626-.64589-.6009-.85525-.9921-.1372-.2564-.23843-.5353-.29708-.8301-.05825-.2929-.05799-.6207-.05769-1.0014 0-.3932-.00016-.7863-.00022-1.1794-.00048-.4576-.0009-.8608.10308-1.2473.09127-.3392.24143-.6598.44362-.9471.23033-.3273.54036-.5851.89217-.8777l3.7696-3.1412c.46481-.3874.55112-.4697.60938-.5525.0674-.0958.11745-.2027.14788-.3157.0263-.0978.03433-.2169.03433-.8219v-3.50486c-.03732-.00149-.07419-.00356-.1097-.00646-.14522-.01187-.35321-.04231-.57115-.15336-.28225-.14381-.51172-.37328-.65553-.65552-.11105-.21795-.14149-.42594-.15335-.57116-.01024-.12532-.01019-.26757-.01014-.38669v-2.44628c-.00005-.11911-.0001-.26137.01014-.38669.01186-.14522.0423-.35321.15335-.57115.14381-.28225.37328-.51172.65553-.65553.21794-.11105.42593-.14149.57115-.15335.12532-.010244.26758-.010189.38669-.01014zm9.96103 15.00009h-12.47607l2.79925-2.3326c.35181-.2926.66184-.5504.89217-.8777.20219-.2873.35235-.6079.44362-.9471.10393-.3865.10353-.7897.10308-1.2473l-.00007-3.59539h4.00002l-.0001 3.59539c-.0005.4576-.0009.8608.1031 1.2473.0913.3392.2414.6598.4436.9471.2303.3273.5404.5851.8922.8777z" fill="#801ed7" fill-rule="evenodd"/></svg>

<svg width="24" height="24" viewBox="0 0 24 24" fill="none" xmlns="http://www.w3.org/2000/svg">
<path fill-rule="evenodd" clip-rule="evenodd" d="M8.27687 1.00001H15.7232C15.8423 0.999961 15.9845 0.999906 16.1098 1.01015C16.2551 1.02201 16.4631 1.05245 16.681 1.1635C16.9632 1.30731 17.1927 1.53678 17.3365 1.81903C17.4476 2.03697 17.478 2.24496 17.4899 2.39018C17.5001 2.5155 17.5001 2.65777 17.5 2.77688V5.22314C17.5001 5.34226 17.5001 5.48452 17.4899 5.60984C17.478 5.75506 17.4476 5.96305 17.3365 6.181C17.1927 6.46324 16.9632 6.69271 16.681 6.83652C16.4631 6.94757 16.2551 6.97801 16.1098 6.98988C16.0743 6.99279 16.0373 6.99486 15.9999 6.99635V10.5012C15.9999 11.1062 16.0079 11.2253 16.0342 11.3231C16.0646 11.4361 16.1147 11.543 16.1821 11.6388C16.2404 11.7216 16.3267 11.8039 16.7915 12.1913L20.5611 15.3325C20.9129 15.6251 21.2229 15.8829 21.4532 16.2102C21.6554 16.4975 21.8056 16.8181 21.8969 17.1573C22.0008 17.5438 22.0004 17.947 21.9999 18.4046C21.9999 18.7977 22.0001 19.1908 22.0001 19.584C22.0004 19.9646 22.0007 20.2925 21.9424 20.5854C21.7057 21.7754 20.7754 22.7057 19.5854 22.9424C19.2925 23.0007 18.9647 23.0004 18.584 23.0001H5.4162C5.0355 23.0004 4.70767 23.0007 4.41482 22.9424C3.96922 22.8538 3.56004 22.6679 3.21006 22.4076C2.85683 22.145 2.56417 21.8067 2.35481 21.4155C2.21761 21.1591 2.11638 20.8802 2.05773 20.5854C1.99948 20.2925 1.99974 19.9647 2.00004 19.584C2.00004 19.1908 1.99988 18.7977 1.99982 18.4046C1.99934 17.947 1.99892 17.5438 2.1029 17.1573C2.19417 16.8181 2.34433 16.4975 2.54652 16.2102C2.77685 15.8829 3.08688 15.6251 3.43869 15.3325L7.20829 12.1913C7.6731 11.8039 7.75941 11.7216 7.81767 11.6388C7.88507 11.543 7.93512 11.4361 7.96555 11.3231C7.99185 11.2253 7.99988 11.1062 7.99988 10.5012V6.99634C7.96256 6.99485 7.92569 6.99278 7.89018 6.98988C7.74496 6.97801 7.53697 6.94757 7.31903 6.83652C7.03678 6.69271 6.80731 6.46324 6.6635 6.181C6.55245 5.96305 6.52201 5.75506 6.51015 5.60984C6.49991 5.48452 6.49996 5.34227 6.50001 5.22315V2.77687C6.49996 2.65776 6.49991 2.5155 6.51015 2.39018C6.52201 2.24496 6.55245 2.03697 6.6635 1.81903C6.80731 1.53678 7.03678 1.30731 7.31903 1.1635C7.53697 1.05245 7.74496 1.02201 7.89018 1.01015C8.0155 0.999906 8.15776 0.999961 8.27687 1.00001ZM18.2379 16.0001H5.76183L8.56108 13.6675C8.91289 13.3749 9.22292 13.1171 9.45325 12.7898C9.65544 12.5025 9.8056 12.1819 9.89687 11.8427C10.0008 11.4562 10.0004 11.053 9.99995 10.5954L9.99988 7.00001H13.9999L13.9998 10.5954C13.9993 11.053 13.9989 11.4562 14.1029 11.8427C14.1942 12.1819 14.3443 12.5025 14.5465 12.7898C14.7768 13.1171 15.0869 13.3749 15.4387 13.6675L18.2379 16.0001Z" fill="#801ED7"/>
</svg>
